X: 84
M:2/4
L:1/16
K:Bb
vFE|DFGA .B2.B2|ABcd .e2.e2|dfdB cecA|cBAF .vF2vFuE|
|:vde|fdfd .b2vaug|fedc .B2vcud|efgf edcB|ABcA .F2vFuE|


